packages/foundations/assets/icons/functional/images/human/restricted_mobility_toilet_24.svg

<svg width="24" height="24" viewBox="0 0 24 24" fill="none" xmlns="http://www.w3.org/2000/svg">
<g clip-path="url(#clip0_185_1153)">
<path fill-rule="evenodd" clip-rule="evenodd" d="M4.99573 14.5C4.99573 14.7812 4.90203 15.0125 4.68953 15.225C4.21453 15.7 3.96453 16.3438 3.96453 16.9688C3.96453 18.375 5.12073 19.5 6.49573 19.5C7.15203 19.5 7.79573 19.25 8.30203 18.7437C8.48323 18.5625 8.71453 18.4688 8.96453 18.4688C9.52703 18.4688 9.96453 18.9375 9.96453 19.4688C9.96453 19.7188 9.90203 20 9.71453 20.1875C8.87073 21.0312 7.71453 21.5 6.52703 21.5C4.02703 21.5 1.99573 19.4688 1.99573 16.9688C1.99573 15.8125 2.46453 14.7194 3.24573 13.8125C3.43373 13.5938 3.71453 13.5 3.96453 13.5C4.52703 13.5 4.99573 13.9375 4.99573 14.5ZM8.18323 11.25L9.21453 14.5H11.402C12.1832 14.5 12.6549 14.8738 12.9332 15.5625L14.777 20.125C14.8192 20.2295 14.8395 20.4062 14.8395 20.5C14.8395 21.0625 14.402 21.5 13.8707 21.5C13.402 21.5 13.0557 21.1885 12.902 20.8125L11.152 16.5H8.40203C7.93323 16.5 7.54263 16.2237 7.40203 15.75L6.21453 11.75C6.19463 11.683 6.18323 11.5625 6.18323 11.5C6.18323 10.9062 6.68323 10.5 7.18323 10.5C7.65203 10.5 8.04683 10.8159 8.18323 11.25ZM6.80823 5.5C7.62073 5.5 8.30823 6.1875 8.30823 7C8.30823 7.8438 7.62073 8.5 6.80823 8.5C5.96453 8.5 5.30823 7.8438 5.30823 7C5.30823 6.1875 5.96453 5.5 6.80823 5.5ZM10.4887 3.24218C10.4887 2.81481 10.871 2.54491 11.2308 2.54491C11.5233 2.54491 11.8268 2.72225 11.9057 3.08471L12.5297 5.95447L13.2326 3.06225C13.3151 2.72297 13.6375 2.54491 13.9298 2.54491C14.2223 2.54491 14.5449 2.71628 14.6271 3.06225L15.3147 5.96513L15.9316 3.08471C16.0141 2.70073 16.314 2.54491 16.6063 2.54491C16.9887 2.54491 17.3485 2.81481 17.3485 3.24218C17.3485 3.30969 17.344 3.37576 17.3261 3.44457L16.0216 8.46021C15.9282 8.8192 15.6167 8.97754 15.3244 8.97754C15.0319 8.97754 14.7281 8.81712 14.6271 8.46021L13.9074 5.9187L13.1876 8.46021C13.0849 8.82295 12.7828 8.97754 12.4904 8.97754C12.198 8.97754 11.8854 8.79696 11.7932 8.43775L10.5111 3.44457C10.4935 3.37569 10.4887 3.30969 10.4887 3.24218ZM17.6635 5.78368C17.6635 2.81481 19.4177 2.5 20.1825 2.5C20.6324 2.5 21.1046 2.58997 21.532 2.79235C21.8468 2.9273 21.9818 3.17467 21.9818 3.42211C21.9818 3.80443 21.6894 4.18682 21.2846 4.18682C21.1946 4.18682 21.0822 4.1643 20.9922 4.11939C20.7448 4.00689 20.4973 3.93945 20.25 3.93945C19.9351 3.93945 19.1029 3.93945 19.1029 5.78368C19.1029 7.56055 19.8451 7.56055 20.25 7.56055C20.5199 7.53809 20.7898 7.47058 21.0371 7.38061C21.1271 7.35816 21.2171 7.33563 21.307 7.33563C21.7119 7.33563 22.0043 7.71802 22.0043 8.10034C22.0043 8.37024 21.8694 8.61768 21.532 8.75256C21.1046 8.88758 20.6548 8.97754 20.205 9C19.2603 9 17.6635 8.57263 17.6635 5.78368Z" fill="#1A1C1F"/>
</g>
<defs>
<clipPath id="clip0_185_1153">
<rect width="24" height="24" fill="white"/>
</clipPath>
</defs>
</svg>

<svg xmlns="http://www.w3.org/2000/svg" width="24" height="24" fill="none"><g clip-path="url(#a)"><path fill="#1A1C1F" fill-rule="evenodd" d="M4.996 14.5a.97.97 0 0 1-.306.725 2.5 2.5 0 0 0-.725 1.744 2.54 2.54 0 0 0 2.53 2.531c.657 0 1.3-.25 1.807-.756a.92.92 0 0 1 .663-.275c.562 0 1 .468 1 1 0 .25-.063.531-.25.718-.844.844-2 1.313-3.188 1.313a4.535 4.535 0 0 1-4.531-4.531c0-1.157.469-2.25 1.25-3.157a.95.95 0 0 1 .719-.312c.562 0 1.03.438 1.03 1m3.187-3.25 1.032 3.25h2.187c.781 0 1.253.374 1.531 1.063l1.844 4.562c.042.105.063.281.063.375a.98.98 0 0 1-.97 1c-.468 0-.814-.311-.968-.687l-1.75-4.313h-2.75c-.469 0-.86-.276-1-.75l-1.187-4a1.006 1.006 0 0 1 .969-1.25c.468 0 .863.316 1 .75M6.808 5.5c.813 0 1.5.688 1.5 1.5a1.5 1.5 0 0 1-1.5 1.5 1.48 1.48 0 0 1-1.5-1.5 1.5 1.5 0 0 1 1.5-1.5m3.68-2.258c0-.427.383-.697.743-.697.292 0 .596.177.675.54l.624 2.87.703-2.893c.082-.339.404-.517.697-.517s.615.171.697.517l.688 2.903.617-2.88c.082-.384.382-.54.674-.54.383 0 .742.27.742.697a.8.8 0 0 1-.022.203L16.022 8.46c-.094.36-.405.518-.698.518a.7.7 0 0 1-.697-.518l-.72-2.541-.72 2.541c-.102.363-.404.518-.697.518a.71.71 0 0 1-.697-.54l-1.282-4.993a.8.8 0 0 1-.022-.203m7.176 2.542c0-2.97 1.754-3.284 2.518-3.284.45 0 .923.09 1.35.292.315.135.45.383.45.63 0 .382-.293.765-.697.765a.7.7 0 0 1-.293-.068 1.8 1.8 0 0 0-.742-.18c-.315 0-1.147 0-1.147 1.845 0 1.777.742 1.777 1.147 1.777.27-.023.54-.09.787-.18.09-.023.18-.045.27-.045.405 0 .697.382.697.764 0 .27-.135.518-.472.653A5.3 5.3 0 0 1 20.205 9c-.945 0-2.541-.427-2.541-3.216" clip-rule="evenodd"/></g><defs><clipPath id="a"><path fill="#fff" d="M0 0h24v24H0z"/></clipPath></defs></svg>
